X:49
T: MEIN HERZ IST IM HOCHLAND
N: B0534
O: Europa, Mitteleuropa, Deutschland; schottisch?
R: Wander -, Heimat - Lied
M: 3/4
L: 1/8
K: D
D2 | D2F2A2 | F3ED2
d3ef2 | F4
FA | B2dBAF | A2AFED
d2dBAF | E4
D2 | D2F2A2 | F3ED2
d3ef2 | F4
dA | F2AFED | E2D2
DF | A2F2EA | F4

